icons/pallet-boxes.svg

<svg xmlns="http://www.w3.org/2000/svg" fill="none" viewBox="0 0 24 24">
    <path fill-rule="evenodd" clip-rule="evenodd" d="M10.4445 17.4722C10.8587 17.4722 11.1945 17.808 11.1945 18.2222V18.25H12.8056V18.2222C12.8056 17.808 13.1414 17.4722 13.5556 17.4722C13.9698 17.4722 14.3056 17.808 14.3056 18.2222V19C14.3056 19.4142 13.9698 19.75 13.5556 19.75H10.4445C10.0303 19.75 9.69452 19.4142 9.69452 19V18.2222C9.69452 17.808 10.0303 17.4722 10.4445 17.4722Z" fill="currentColor"/>
    <path fill-rule="evenodd" clip-rule="evenodd" d="M2.69458 15.8889C2.69458 15.4747 3.03037 15.1389 3.44458 15.1389H20.5557C20.9699 15.1389 21.3057 15.4747 21.3057 15.8889C21.3057 16.3031 20.9699 16.6389 20.5557 16.6389H3.44458C3.03037 16.6389 2.69458 16.3031 2.69458 15.8889Z" fill="currentColor"/>
    <path fill-rule="evenodd" clip-rule="evenodd" d="M6.58358 8.88887C6.58358 8.47465 6.91936 8.13887 7.33358 8.13887H12.0002C12.4144 8.13887 12.7502 8.47465 12.7502 8.88887V12.7777C12.7502 13.192 12.4144 13.5277 12.0002 13.5277H7.33358C6.91936 13.5277 6.58358 13.192 6.58358 12.7777V8.88887ZM8.08358 9.63887V12.0277H11.2502V9.63887H8.08358Z" fill="currentColor"/>
    <path fill-rule="evenodd" clip-rule="evenodd" d="M11.2501 8.88887C11.2501 8.47465 11.586 8.13887 12.0002 8.13887H16.6668C17.081 8.13887 17.4168 8.47465 17.4168 8.88887V12.7777C17.4168 13.192 17.081 13.5277 16.6668 13.5277H12.0002C11.586 13.5277 11.2501 13.192 11.2501 12.7777V8.88887ZM12.7501 9.63887V12.0277H15.9168V9.63887H12.7501Z" fill="currentColor"/>
    <path fill-rule="evenodd" clip-rule="evenodd" d="M6.58358 5C6.58358 4.58579 6.91936 4.25 7.33358 4.25H12.0002C12.4144 4.25 12.7502 4.58579 12.7502 5V8.88887C12.7502 9.30308 12.4144 9.63888 12.0002 9.63888H7.33358C6.91936 9.63888 6.58358 9.30308 6.58358 8.88887V5ZM8.08358 5.75V8.13888H11.2502V5.75H8.08358Z" fill="currentColor"/>
    <path fill-rule="evenodd" clip-rule="evenodd" d="M11.2501 5C11.2501 4.58579 11.586 4.25 12.0002 4.25H16.6668C17.081 4.25 17.4168 4.58579 17.4168 5V8.88887C17.4168 9.30308 17.081 9.63888 16.6668 9.63888H12.0002C11.586 9.63888 11.2501 9.30308 11.2501 8.88887V5ZM12.7501 5.75V8.13888H15.9168V5.75H12.7501Z" fill="currentColor"/>
    <path fill-rule="evenodd" clip-rule="evenodd" d="M18.7067 9.72603C19.1035 9.60701 19.5216 9.83215 19.6406 10.2289L21.2739 15.6733C21.2949 15.7432 21.3057 15.8159 21.3057 15.8889L21.3056 18.9999C21.3056 19.4142 20.9698 19.7499 20.5556 19.7499H17.4445C17.0302 19.7499 16.6945 19.4142 16.6945 18.9999V18.2222C16.6945 17.8079 17.0302 17.4722 17.4445 17.4722C17.8587 17.4722 18.1945 17.8079 18.1945 18.2222V18.2499H19.8056V15.9989L18.2039 10.6599C18.0848 10.2632 18.31 9.84506 18.7067 9.72603Z" fill="currentColor"/>
    <path fill-rule="evenodd" clip-rule="evenodd" d="M5.29342 9.72603C5.69017 9.84506 5.9153 10.2632 5.79628 10.6599L4.19458 15.9989V18.2499H5.80568V18.2222C5.80568 17.8079 6.14147 17.4722 6.55568 17.4722C6.9699 17.4722 7.30568 17.8079 7.30568 18.2222V18.9999C7.30568 19.4142 6.9699 19.7499 6.55568 19.7499H3.44458C3.03037 19.7499 2.69458 19.4142 2.69458 18.9999V15.8889C2.69458 15.8159 2.70524 15.7432 2.72621 15.6733L4.35954 10.2289C4.47856 9.83215 4.89668 9.60701 5.29342 9.72603Z" fill="currentColor"/>
</svg>

<svg xmlns="http://www.w3.org/2000/svg" fill="none" viewBox="0 0 24 24"><path fill="currentColor" fill-rule="evenodd" d="M10.445 17.472a.75.75 0 0 1 .75.75v.028h1.61v-.028a.75.75 0 0 1 1.5 0V19a.75.75 0 0 1-.75.75h-3.11a.75.75 0 0 1-.75-.75v-.778a.75.75 0 0 1 .75-.75M2.695 15.889a.75.75 0 0 1 .75-.75h17.11a.75.75 0 0 1 0 1.5H3.446a.75.75 0 0 1-.75-.75M6.584 8.889a.75.75 0 0 1 .75-.75H12a.75.75 0 0 1 .75.75v3.889a.75.75 0 0 1-.75.75H7.334a.75.75 0 0 1-.75-.75zm1.5.75v2.389h3.166v-2.39z" clip-rule="evenodd"/><path fill="currentColor" fill-rule="evenodd" d="M11.25 8.889a.75.75 0 0 1 .75-.75h4.667a.75.75 0 0 1 .75.75v3.889a.75.75 0 0 1-.75.75H12a.75.75 0 0 1-.75-.75zm1.5.75v2.389h3.167v-2.39z" clip-rule="evenodd"/><path fill="currentColor" fill-rule="evenodd" d="M6.584 5a.75.75 0 0 1 .75-.75H12a.75.75 0 0 1 .75.75v3.889a.75.75 0 0 1-.75.75H7.334a.75.75 0 0 1-.75-.75zm1.5.75v2.389h3.166V5.75z" clip-rule="evenodd"/><path fill="currentColor" fill-rule="evenodd" d="M11.25 5a.75.75 0 0 1 .75-.75h4.667a.75.75 0 0 1 .75.75v3.889a.75.75 0 0 1-.75.75H12a.75.75 0 0 1-.75-.75zm1.5.75v2.389h3.167V5.75zM18.707 9.726a.75.75 0 0 1 .934.503l1.633 5.444a.8.8 0 0 1 .032.216v3.11a.75.75 0 0 1-.75.75h-3.111a.75.75 0 0 1-.75-.75v-.777a.75.75 0 1 1 1.5 0v.028h1.61v-2.251l-1.601-5.34a.75.75 0 0 1 .503-.933M5.293 9.726a.75.75 0 0 1 .503.934l-1.601 5.339v2.25h1.61v-.027a.75.75 0 1 1 1.5 0V19a.75.75 0 0 1-.75.75h-3.11a.75.75 0 0 1-.75-.75v-3.111a.8.8 0 0 1 .031-.216L4.36 10.23a.75.75 0 0 1 .933-.503" clip-rule="evenodd"/></svg>
